svg/UnitedNations-Flags/flag-cc.svg

<?xml version="1.0" encoding="UTF-8" standalone="no"?>
<!-- Created with Inkscape (http://www.inkscape.org/) --><svg height="256" id="svg5778" inkscape:output_extension="org.inkscape.output.svg.inkscape" inkscape:version="0.46" sodipodi:docbase="C:\Documents and Settings\David Nelson\Archives\Svg" sodipodi:docname="Flag_of_the_Cocos_(Keeling)_Islands.svg" sodipodi:version="0.32" version="1.0" width="256" xmlns="http://www.w3.org/2000/svg" xmlns:cc="http://creativecommons.org/ns#" xmlns:dc="http://purl.org/dc/elements/1.1/" xmlns:inkscape="http://www.inkscape.org/namespaces/inkscape" xmlns:rdf="http://www.w3.org/1999/02/22-rdf-syntax-ns#" xmlns:sodipodi="http://sodipodi.sourceforge.net/DTD/sodipodi-0.dtd" xmlns:svg="http://www.w3.org/2000/svg">
  <metadata>
    <rdf:RDF xmlns:cc="http://web.resource.org/cc/" xmlns:dc="http://purl.org/dc/elements/1.1/" xmlns:rdf="http://www.w3.org/1999/02/22-rdf-syntax-ns#">
      <cc:Work rdf:about="">
        <dc:title></dc:title>
        <dc:description></dc:description>
        <dc:subject>
          <rdf:Bag>
            <rdf:li>unsorted</rdf:li>
          </rdf:Bag>
        </dc:subject>
        <dc:publisher>
          <cc:Agent rdf:about="http://www.openclipart.org/">
            <dc:title>Open Clip Art Library, Source: Wikimedia Commons, Source: Wikimedia Commons, Source: Wikimedia Commons, Source: Wikimedia Commons</dc:title>
          </cc:Agent>
        </dc:publisher>
        <dc:creator>
          <cc:Agent>
            <dc:title></dc:title>
          </cc:Agent>
        </dc:creator>
        <dc:rights>
          <cc:Agent>
            <dc:title></dc:title>
          </cc:Agent>
        </dc:rights>
        <dc:date></dc:date>
        <dc:format>image/svg+xml</dc:format>
        <dc:type rdf:resource="http://purl.org/dc/dcmitype/StillImage"/>
        <cc:license rdf:resource="http://en.wikipedia.org/wiki/Public_domain"/>
        <dc:language>en</dc:language>
      </cc:Work>
    </rdf:RDF>
  </metadata>
  <defs id="defs5780">
    <inkscape:perspective id="perspective3844" inkscape:persp3d-origin="300 : 100 : 1" inkscape:vp_x="0 : 150 : 1" inkscape:vp_y="0 : 1000 : 0" inkscape:vp_z="600 : 150 : 1" sodipodi:type="inkscape:persp3d"/>
  </defs>
  <sodipodi:namedview bordercolor="#666666" borderopacity="1.0" id="base" inkscape:current-layer="layer1" inkscape:cx="300.00003" inkscape:cy="149.99998" inkscape:document-units="px" inkscape:pageopacity="0.0" inkscape:pageshadow="2" inkscape:window-height="795" inkscape:window-width="973" inkscape:window-x="0" inkscape:window-y="180" inkscape:zoom="1.1083332" pagecolor="#ffffff" showgrid="false"/>
  <g id="layer1" inkscape:groupmode="layer" inkscape:label="Layer 1">
    <rect height="128" id="rect5930" style="fill:#008000;fill-opacity:1;fill-rule:evenodd;stroke:none;stroke-width:1;stroke-linecap:butt;stroke-linejoin:miter;stroke-miterlimit:4;stroke-dasharray:none;stroke-dashoffset:0;stroke-opacity:1" width="256" x="-5.5511151e-17" y="64"/>
    <path d="M 119.53083,62.039097 A 46.12331,46.12331 0 1 1 27.284206,62.039097 A 46.12331,46.12331 0 1 1 119.53083,62.039097 z" id="path5927" sodipodi:cx="73.407516" sodipodi:cy="62.039097" sodipodi:rx="46.12331" sodipodi:ry="46.12331" sodipodi:type="arc" style="fill:#ffe000;fill-opacity:1;fill-rule:evenodd;stroke:none;stroke-width:0.25;stroke-linecap:butt;stroke-linejoin:miter;stroke-miterlimit:4;stroke-dasharray:none;stroke-dashoffset:0;stroke-opacity:1" transform="matrix(0.6038566,0,0,0.6038566,-0.4757482,63.870609)"/>
    <path d="M 42.008857,122.39861 L 48.984498,122.39861 C 48.984498,122.39861 49.29937,121.75918 48.914256,121.43946 C 48.529143,121.11975 47.029085,121.04937 47.434355,119.91839 C 48.267558,117.59317 48.383816,118.31011 48.90699,112.78773 C 49.430165,107.26535 49.68206,98.603929 49.68206,98.603929 L 48.67447,98.603929 C 48.67447,98.603929 48.868236,101.2973 48.286933,104.8045 C 47.705629,108.31169 47.531238,108.62172 46.891805,111.31509 C 46.252373,114.00847 46.15549,114.24099 45.574186,115.81051 C 44.992883,117.38003 44.93475,117.45754 44.024042,118.91079 C 43.113335,120.36405 43.442739,119.8215 42.938944,120.69346 C 42.687044,121.12943 42.377016,121.01318 42.207469,121.33047 C 42.037922,121.64777 42.008857,122.39861 42.008857,122.39861 z" id="path5923" sodipodi:nodetypes="ccsssccssssssc" style="fill:#802000;fill-opacity:1;fill-rule:evenodd;stroke:#7b3100;stroke-width:0.59259254;stroke-linecap:butt;stroke-linejoin:miter;stroke-miterlimit:4;stroke-dasharray:none;stroke-opacity:1"/>
    <g id="g596" style="font-size:12px;fill:#ffe000;fill-opacity:1;stroke:none;stroke-opacity:1" transform="matrix(2.1333331,0,0,2.1333331,0,63.999999)">
      <polygon id="polygon590" points="90,45.7143 90.8264,48.2839 93.3507,47.3279 91.857,49.5761 94.1783,50.9537 91.4892,51.1876 91.8595,53.8613 90,51.9048 88.1405,53.8613 88.5108,51.1876 85.8217,50.9537 88.143,49.5761 86.6493,47.3279 89.1736,48.2839 90,45.7143 " style="fill:#ffe000;fill-opacity:1;fill-rule:evenodd;stroke:none;stroke-width:1pt;stroke-opacity:1"/>
      <polygon id="polygon592" points="90,5.71429 90.8264,8.28387 93.3507,7.3279 91.857,9.57615 94.1783,10.9537 91.4892,11.1876 91.8595,13.8613 90,11.9048 88.1405,13.8613 88.5108,11.1876 85.8217,10.9537 88.143,9.57615 86.6493,7.3279 89.1736,8.28387 90,5.71429 " style="fill:#ffe000;fill-opacity:1;fill-rule:evenodd;stroke:none;stroke-width:1pt;stroke-opacity:1"/>
      <polygon id="polygon593" points="75,21.9643 75.8264,24.5339 78.3507,23.5779 76.857,25.8262 79.1783,27.2037 76.4892,27.4376 76.8595,30.1113 75,28.1548 73.1405,30.1113 73.5108,27.4376 70.8217,27.2037 73.143,25.8262 71.6493,23.5779 74.1736,24.5339 75,21.9643 " style="fill:#ffe000;fill-opacity:1;fill-rule:evenodd;stroke:none;stroke-width:1pt;stroke-opacity:1"/>
      <polygon id="polygon594" points="103.333,17.9643 104.16,20.5339 106.684,19.5779 105.19,21.8262 107.512,23.2037 104.823,23.4376 105.193,26.1113 103.333,24.1548 101.474,26.1113 101.844,23.4376 99.1551,23.2037 101.476,21.8262 99.9826,19.5779 102.507,20.5339 103.333,17.9643 " style="fill:#ffe000;fill-opacity:1;fill-rule:evenodd;stroke:none;stroke-width:1pt;stroke-opacity:1"/>
      <polygon id="polygon595" points="96,30 96.6531,31.6011 98.3776,31.7275 97.0567,32.8434 97.4695,34.5225 96,33.6111 94.5305,34.5225 94.9433,32.8434 93.6224,31.7275 95.3469,31.6011 96,30 " style="fill:#ffe000;fill-opacity:1;fill-rule:evenodd;stroke:none;stroke-width:1pt;stroke-opacity:1"/>
    </g>
    <path d="M 128,101.33334 C 113.27999,101.33334 101.33333,113.28 101.33333,128 C 101.33333,142.72001 113.27998,154.66667 128,154.66667 C 134.90128,154.66667 141.13364,151.97328 145.87037,147.66667 C 145.52155,147.83679 145.2107,148.07036 144.85185,148.22223 C 143.53939,148.77766 142.16874,149.20755 140.74074,149.5 C 139.31274,149.79246 137.82887,149.94445 136.31481,149.94445 C 134.80075,149.94445 133.31688,149.79246 131.88889,149.5 C 130.46088,149.20755 129.09023,148.77766 127.77777,148.22223 C 126.46532,147.6668 125.22298,146.9741 124.05555,146.18519 C 122.88812,145.39628 121.78921,144.51143 120.79629,143.51853 C 119.80338,142.52561 118.90002,141.42669 118.11111,140.25927 C 117.32219,139.09183 116.64802,137.8495 116.09259,136.53704 C 115.53716,135.22459 115.10727,133.85393 114.81481,132.42593 C 114.52236,130.99793 114.37037,129.51406 114.37037,128 C 114.37037,126.48595 114.52236,125.00208 114.81481,123.57408 C 115.10727,122.14608 115.53716,120.77542 116.09259,119.46297 C 116.64802,118.15051 117.32219,116.90818 118.11111,115.74075 C 118.90002,114.57332 119.80338,113.4744 120.79629,112.48149 C 121.78921,111.48857 122.88812,110.60373 124.05555,109.81482 C 125.22298,109.02591 126.46532,108.33321 127.77777,107.77779 C 129.09023,107.22235 130.46088,106.79246 131.88889,106.50001 C 133.31688,106.20755 134.80075,106.05556 136.31481,106.05556 C 137.82887,106.05556 139.31274,106.20755 140.74074,106.50001 C 142.16874,106.79246 143.53939,107.22235 144.85185,107.77779 C 145.2107,107.92965 145.52155,108.16321 145.87037,108.33334 C 141.13364,104.02674 134.90128,101.33334 128,101.33334 z" id="path5893" style="fill:#ffe000;fill-opacity:1;fill-rule:evenodd;stroke:none;stroke-width:0.5;stroke-linecap:butt;stroke-linejoin:miter;stroke-miterlimit:4;stroke-dasharray:none;stroke-dashoffset:0;stroke-opacity:1"/>
    <path d="M 47.333333,80.981489 C 47.391278,82.064939 47.282363,83.499289 46.833331,84.666669 C 46.378026,85.967389 45.882909,87.263949 45.907404,88.611119 C 45.183552,88.857329 44.437508,87.044699 43.74074,88.111119 C 44.26452,89.584549 45.473804,90.751239 46.302382,92.078739 C 46.44212,92.490299 47.634137,93.564909 46.944443,93.814819 C 45.203567,93.219009 44.781606,91.013379 43.701756,89.673759 C 42.44767,87.419619 40.109534,85.826419 37.50499,85.716479 C 36.526614,85.742109 33.345415,85.473989 34.173104,87.149339 C 35.392066,87.978099 36.894073,88.518489 38.097776,89.448699 C 38.994527,89.532589 40.619939,91.029609 40.52519,91.595239 C 38.948005,90.956439 38.20979,90.190829 36.510523,89.518839 C 34.208088,88.629589 31.023412,89.164459 29.748555,91.449519 C 29.510914,92.044649 29.160059,93.779189 29.907407,93.944449 C 30.780652,92.581019 32.029805,91.056919 33.880656,91.465709 C 35.334477,91.579219 32.258392,94.174129 33.435091,93.651979 C 33.807953,93.486529 34.668953,92.921349 35.266244,92.862319 C 35.863533,92.803299 36.197113,93.250439 36.65029,93.312299 C 37.556644,93.436029 37.806232,93.815989 37.722221,94.037039 C 37.623104,94.297839 37.335145,94.075169 36.41377,94.367299 C 35.953082,94.513369 35.712426,94.918199 35.175072,95.103539 C 34.637718,95.288869 33.519877,95.302009 33.10215,95.137659 C 31.640647,94.502829 29.244653,94.613349 28.789063,96.444769 C 28.788663,97.250139 28.071966,96.355779 27.74074,96.703709 C 27.492371,97.582529 27.428136,98.484849 26.12466,98.405039 C 25.333414,99.235119 24.523141,100.09461 23.518518,100.68519 C 24.108103,102.03843 26.444174,99.326069 26.334965,100.46973 C 25.313746,101.8623 26.860403,102.15531 27.537445,101.08346 C 28.682531,99.873549 30.100852,98.400899 31.809452,99.620149 C 32.623268,100.38635 33.09615,99.215059 33.685184,99.277779 C 34.056291,100.22954 34.523228,99.324629 34.944444,99.055559 C 35.633955,98.969659 35.439958,99.916759 36.259259,99.333339 C 37.892098,98.252679 39.90101,99.160739 41.496041,98.109299 C 43.19386,97.335749 41.734411,98.732339 41.265795,99.278269 C 40.519816,100.72512 41.166757,102.62468 39.548636,103.52312 C 38.898659,105.24743 40.316568,107.5207 38.87037,108.7963 C 38.659993,109.59621 40.73029,109.5046 41.311338,109.8333 C 42.329501,109.87361 41.267581,107.50294 42.277777,107.18519 C 43.632537,108.02378 43.569113,105.68553 43.289348,104.96431 C 43.42068,103.3249 43.513203,101.53236 44.327867,100.04739 C 45.193962,98.227419 45.995579,100.78862 45.026048,101.50917 C 44.475319,103.18273 43.673677,105.27699 44.925926,106.83334 C 45.286835,106.91411 45.58318,107.7889 46.050474,108.05778 C 46.517772,108.32665 47.156027,107.9896 47.272524,107.19373 C 47.871906,104.79707 47.569962,102.21968 48.425924,99.888899 C 49.030075,99.166869 49.86347,99.772479 50.238109,100.43644 C 51.43761,101.82901 52.280763,103.56985 53.733038,104.71727 C 55.055282,105.336 56.224613,106.27183 56.834017,107.63316 C 56.825863,108.6834 59.816975,108.84438 58.923109,107.67703 C 58.0655,106.54059 58.631363,105.40392 59.5,104.64815 C 59.965233,104.7629 59.827727,103.9297 59.462961,104.25927 C 58.878953,104.1215 58.841603,103.05262 59.653353,103.56068 C 61.020606,104.00206 59.546763,102.57117 59.052581,102.52728 C 57.896523,101.8107 56.568297,100.98629 55.999999,99.740749 C 57.504907,99.756089 59.067066,100.56777 60.604986,100.06431 C 61.837685,99.430989 63.088015,100.11714 63.518517,101.20371 C 64.471405,101.05165 64.06515,100.09605 63.518517,99.777779 C 64.215486,99.490179 64.697491,98.893849 63.852405,98.367879 C 63.406078,97.785419 64.450908,96.791949 63.166667,96.833339 C 63.208595,95.852349 62.822389,94.954669 61.753069,94.615739 C 60.681871,93.708649 57.538401,95.952119 57.62963,93.907409 C 57.312899,92.794579 58.906533,93.758739 59.351849,93.203709 C 59.811996,92.030539 57.159171,92.145019 58.034511,91.235459 C 58.606215,90.867369 61.289043,90.338589 59.185146,89.944789 C 58.135055,90.233399 57.233846,90.019679 56.407405,89.500009 C 55.654202,90.759759 53.503474,88.815879 53.886727,91.055599 C 53.592507,91.899519 51.670152,94.092309 51.150019,92.412379 C 51.592494,91.095669 53.869908,90.665149 53.163766,88.889909 C 53.055367,87.781699 52.136558,89.082639 51.703705,89.000009 C 51.484509,88.310189 52.366638,87.497079 52.981482,87.333339 C 54.201488,88.271699 54.238441,86.149479 55.39871,86.322129 C 56.245823,86.133919 55.125161,85.770559 54.888886,85.611119 C 55.121031,84.991039 56.421481,84.674169 55.146303,84.135729 C 54.021166,83.300869 53.187229,84.966719 52.259259,85.055559 C 51.368549,84.049969 53.067933,83.566589 53.537036,83.037039 C 53.562239,82.642299 52.546137,82.917949 52.851852,82.574079 C 53.117392,82.099429 54.916641,82.064079 54.074072,81.351859 C 52.805119,80.916219 51.167777,81.024839 49.95019,81.589219 C 49.183125,81.837529 48.957448,83.571919 48.296294,83.500009 C 47.985433,82.727999 48.397508,81.204849 47.333333,80.981489 z M 53.333332,97.925929 C 54.300248,97.762199 53.353859,99.394319 52.888886,99.370379 C 52.929987,98.783919 51.490414,98.840359 52.383564,98.329399 C 52.673211,98.142369 52.995928,97.999709 53.333332,97.925929 z" id="path5908" sodipodi:nodetypes="cccccccccccccccsssssscccccccccccccccccccccsccccccccccccccccccccccccccccccccccccccccc" style="fill:#008000;fill-opacity:1;fill-rule:evenodd;stroke:none;stroke-width:0.25;stroke-linecap:butt;stroke-linejoin:miter;stroke-miterlimit:4;stroke-dasharray:none;stroke-opacity:1"/>
  </g>
</svg>

<svg xmlns="http://www.w3.org/2000/svg" viewBox="0 0 256 256"><g fill-rule="evenodd"><path fill="#008000" d="m0 64h256v128h-256z"/><path d="M119.53083 62.0391A46.12331 46.12331 0 1 1 27.28421 62.0391 46.12331 46.12331 0 1 1 119.53083 62.0391" transform="matrix(.60386 0 0 .60386-.476 63.871)" fill="#ffe000"/><path d="m42.01 122.4h6.976c0 0 .315-.639-.07-.959-.385-.32-1.885-.39-1.48-1.521.833-2.325.949-1.608 1.473-7.131.523-5.522.775-14.184.775-14.184h-1.01c0 0 .194 2.693-.388 6.201-.581 3.507-.756 3.817-1.395 6.511-.639 2.693-.736 2.926-1.318 4.495-.581 1.57-.639 1.647-1.55 3.1-.911 1.453-.581.911-1.085 1.783-.252.436-.562.32-.731.637-.17.317-.199 1.068-.199 1.068z" fill="#802000" stroke="#7b3100" stroke-width=".593"/><g transform="matrix(2.13333 0 0 2.13333 0 64)" fill="#ffe000"><path d="m90 45.714l.83 2.566 2.52-.95-1.49 2.246 2.32 1.378-2.69.236.37 2.671-1.86-1.956-1.86 1.956.37-2.671-2.69-.236 2.32-1.378-1.49-2.246 2.52.95.83-2.566"/><path d="m90 5.714l.83 2.57 2.52-.956-1.49 2.248 2.32 1.378-2.69.234.37 2.673-1.86-1.956-1.86 1.956.37-2.673-2.69-.234 2.32-1.378-1.49-2.248 2.52.956.83-2.57"/><path d="m75 21.964l.826 2.57 2.524-.956-1.493 2.248 2.323 1.374-2.69.238.369 2.672-1.859-1.96-1.86 1.96.37-2.672-2.688-.238 2.318-1.374-1.49-2.248 2.52.956.83-2.57"/><path d="m103.33 17.964l.83 2.57 2.52-.956-1.49 2.248 2.32 1.374-2.69.238.37 2.672-1.86-1.96-1.86 1.96.37-2.672-2.68-.238 2.32-1.374-1.5-2.248 2.53.956.82-2.57"/><path d="m96 30l.65 1.601 1.73.126-1.32 1.116.41 1.68-1.47-.912-1.47.912.41-1.68-1.32-1.116 1.73-.126.65-1.601"/></g><path d="m128 101.33c-14.72 0-26.667 11.947-26.667 26.667 0 14.72 11.947 26.667 26.667 26.667 6.901 0 13.13-2.693 17.87-7-.349.17-.66.404-1.019.556-1.312.555-2.683.985-4.111 1.278-1.428.292-2.912.444-4.426.444-1.514 0-2.998-.152-4.426-.444-1.428-.292-2.799-.722-4.111-1.278-1.312-.555-2.555-1.248-3.722-2.037-1.167-.789-2.266-1.674-3.259-2.667-.993-.993-1.896-2.092-2.685-3.259-.789-1.167-1.463-2.41-2.02-3.722-.555-1.312-.985-2.683-1.278-4.111-.292-1.428-.444-2.912-.444-4.426 0-1.514.152-2.998.444-4.426.292-1.428.722-2.799 1.278-4.111.555-1.312 1.23-2.555 2.02-3.722.789-1.167 1.692-2.266 2.685-3.259.993-.993 2.092-1.878 3.259-2.667 1.167-.789 2.41-1.482 3.722-2.037 1.312-.555 2.683-.985 4.111-1.278 1.428-.292 2.912-.444 4.426-.444 1.514 0 2.998.152 4.426.444 1.428.292 2.799.722 4.111 1.278.359.152.67.385 1.019.556-4.737-4.307-10.969-7-17.87-7" fill="#ffe000"/><path d="m47.33 80.981c.058 1.083-.051 2.518-.5 3.685-.455 1.301-.95 2.597-.926 3.944-.724.246-1.47-1.566-2.167-.5.524 1.473 1.733 2.64 2.562 3.968.14.412 1.332 1.486.642 1.736-1.741-.596-2.163-2.801-3.243-4.141-1.254-2.254-3.592-3.847-6.197-3.957-.978.026-4.16-.242-3.332 1.433 1.219.829 2.721 1.369 3.925 2.299.897.084 2.522 1.581 2.427 2.147-1.577-.639-2.315-1.404-4.01-2.076-2.302-.889-5.487-.354-6.762 1.931-.238.595-.588 2.33.159 2.495.873-1.363 2.122-2.888 3.973-2.479 1.454.114-1.622 2.708-.446 2.186.373-.165 1.234-.731 1.831-.79.597-.059.931.388 1.384.45.906.124 1.156.504 1.072.725-.099.261-.387.038-1.308.33-.461.146-.701.551-1.239.736-.537.185-1.655.198-2.073.034-1.462-.635-3.857-.524-4.313 1.307 0 .805-.717-.089-1.048.259-.248.879-.313 1.781-1.616 1.701-.791.83-1.602 1.69-2.606 2.28.59 1.353 2.926-1.359 2.816-.215-1.021 1.393.525 1.686 1.202.614 1.145-1.21 2.563-2.683 4.272-1.463.814.766 1.287-.405 1.876-.342.371.952.838.047 1.259-.222.69-.086.496.861 1.315.278 1.633-1.081 3.642-.173 5.237-1.224 1.698-.774.238.623-.23 1.169-.746 1.447-.099 3.346-1.717 4.245-.65 1.724.768 3.998-.678 5.273-.21.8 1.86.708 2.441 1.037 1.018.04-.044-2.33.966-2.648 1.355.839 1.291-1.5 1.012-2.221.131-1.639.224-3.432 1.039-4.917.866-1.82 1.668.741.698 1.462-.551 1.674-1.352 3.768-.1 5.324.361.081.657.956 1.125 1.224.467.269 1.106-.068 1.222-.864.599-2.397.297-4.974 1.153-7.305.604-.722 1.438-.116 1.812.548 1.2 1.393 2.043 3.133 3.495 4.281 1.322.619 2.492 1.555 3.101 2.916-.008 1.05 2.983 1.211 2.089.044-.858-1.136-.292-2.273.577-3.03.465.115.328-.718-.037-.389-.584-.138-.621-1.207.19-.699 1.367.441-.107-.99-.601-1.033-1.156-.717-2.484-1.541-3.053-2.787 1.505.015 3.067.827 4.605.324 1.233-.633 2.483.053 2.914 1.139.953-.152.547-1.108 0-1.426.697-.288 1.179-.884.334-1.41-.446-.582.599-1.576-.686-1.535.042-.981-.344-1.879-1.414-2.218-1.071-.907-4.215 1.336-4.123-.708-.317-1.113 1.277-.149 1.722-.704.46-1.173-2.193-1.059-1.317-1.968.572-.368 3.255-.897 1.151-1.291-1.05.289-1.951.075-2.778-.445-.753 1.26-2.904-.684-2.521 1.556-.294.844-2.217 3.037-2.737 1.357.442-1.317 2.72-1.747 2.01-3.522-.108-1.108-1.027.193-1.46.11-.219-.69.663-1.503 1.278-1.667 1.22.938 1.257-1.184 2.417-1.011.847-.188-.274-.552-.51-.711.232-.62 1.533-.937.257-1.475-1.125-.835-1.959.831-2.887.92-.891-1.01.809-1.489 1.278-2.02.025-.395-.991-.119-.685-.463.266-.475 2.065-.51 1.222-1.222-1.269-.436-2.906-.327-4.124.237-.767.248-.993 1.983-1.654 1.911-.311-.772.101-2.295-.963-2.519m6 16.944c.967-.164.021 1.468-.444 1.444.041-.586-1.398-.53-.505-1.041.29-.187.612-.33.95-.403" fill="#008000"/></g></svg>
